src/assets/img/favicon.svg

<svg width="48" height="48" viewBox="0 0 48 48" fill="none" xmlns="http://www.w3.org/2000/svg">
<g filter="url(#filter0_d_105_33)">
<path d="M30.4316 16.7363C30.3327 16.86 29.7266 16.8724 28.6133 16.7734C27.5 16.6745 25.7435 16.5137 23.3438 16.291C23.3438 17.1074 23.3438 18.1094 23.3438 19.2969C23.3685 20.4844 23.3685 21.7585 23.3438 23.1191C25.1992 23.2923 26.6465 23.4531 27.6855 23.6016C28.7246 23.75 29.2689 23.849 29.3184 23.8984C29.4173 23.9974 29.4544 24.2077 29.4297 24.5293C29.4049 24.8262 29.3431 25.1602 29.2441 25.5312C29.1452 25.9023 29.0215 26.2611 28.873 26.6074C28.7246 26.929 28.5762 27.1393 28.4277 27.2383C28.304 27.2878 27.8092 27.362 26.9434 27.4609C26.1022 27.5352 24.9023 27.6094 23.3438 27.6836C23.3438 28.7474 23.3314 29.7988 23.3066 30.8379C23.3066 31.877 23.2943 32.8294 23.2695 33.6953C25.6693 33.7201 27.4134 33.7695 28.502 33.8438C29.6152 33.8932 30.2214 33.9674 30.3203 34.0664C30.4193 34.1901 30.4193 34.4251 30.3203 34.7715C30.2461 35.1178 30.11 35.4889 29.9121 35.8848C29.7389 36.2559 29.541 36.627 29.3184 36.998C29.1204 37.3691 28.9596 37.6289 28.8359 37.7773C28.7865 37.8268 28.4896 37.8516 27.9453 37.8516C27.401 37.8268 26.7949 37.7897 26.127 37.7402C25.459 37.6908 24.8158 37.6413 24.1973 37.5918C23.5788 37.5176 23.1706 37.4557 22.9727 37.4062C22.6016 37.2826 22.2057 37.0846 21.7852 36.8125C21.3646 36.5156 21.0306 36.1445 20.7832 35.6992C20.7337 35.5755 20.6471 35.1673 20.5234 34.4746C20.4245 33.7572 20.3132 32.8542 20.1895 31.7656C20.0658 30.6771 19.9421 29.4525 19.8184 28.0918C19.6947 26.7311 19.571 25.3457 19.4473 23.9355C19.3236 22.5254 19.2122 21.14 19.1133 19.7793C19.0143 18.4186 18.9277 17.194 18.8535 16.1055C18.804 14.9922 18.7793 14.0768 18.7793 13.3594C18.7793 12.6172 18.8164 12.1719 18.8906 12.0234C18.9648 11.8255 19.3112 11.6771 19.9297 11.5781C20.5482 11.4792 21.2904 11.4173 22.1562 11.3926C23.0221 11.3431 23.9499 11.3307 24.9395 11.3555C25.9538 11.3802 26.8939 11.4297 27.7598 11.5039C28.6257 11.5534 29.3555 11.6276 29.9492 11.7266C30.543 11.8008 30.877 11.875 30.9512 11.9492C31.0501 12.0729 31.0996 12.3574 31.0996 12.8027C31.1243 13.248 31.0996 13.7428 31.0254 14.2871C30.9759 14.8066 30.8893 15.3138 30.7656 15.8086C30.6667 16.2786 30.5553 16.5879 30.4316 16.7363Z" fill="#9E7EC4"/>
</g>
<defs>
<filter id="filter0_d_105_33" x="14.7793" y="11.3184" width="20.3574" height="34.5332" filterUnits="userSpaceOnUse" color-interpolation-filters="sRGB">
<feFlood flood-opacity="0" result="BackgroundImageFix"/>
<feColorMatrix in="SourceAlpha" type="matrix" values="0 0 0 0 0 0 0 0 0 0 0 0 0 0 0 0 0 0 127 0" result="hardAlpha"/>
<feOffset dy="4"/>
<feGaussianBlur stdDeviation="2"/>
<feComposite in2="hardAlpha" operator="out"/>
<feColorMatrix type="matrix" values="0 0 0 0 0 0 0 0 0 0 0 0 0 0 0 0 0 0 0.25 0"/>
<feBlend mode="normal" in2="BackgroundImageFix" result="effect1_dropShadow_105_33"/>
<feBlend mode="normal" in="SourceGraphic" in2="effect1_dropShadow_105_33" result="shape"/>
</filter>
</defs>
</svg>

<svg width="48" height="48" fill="none" xmlns="http://www.w3.org/2000/svg"><g filter="url(#a)"><path d="M30.432 16.736c-.1.124-.705.136-1.819.037-1.113-.099-2.87-.26-5.27-.482v3.006a98.473 98.473 0 0 1 0 3.822c1.856.173 3.303.334 4.343.483 1.039.148 1.583.247 1.632.296.1.1.136.31.112.631-.025.297-.087.631-.186 1.002s-.223.73-.371 1.076c-.148.322-.297.532-.445.631-.124.05-.619.124-1.485.223-.84.074-2.04.148-3.6.223 0 1.063-.012 2.115-.036 3.154 0 1.039-.013 1.991-.037 2.857 2.4.025 4.143.075 5.232.149 1.113.05 1.72.123 1.818.222.1.124.1.36 0 .706-.074.346-.21.717-.408 1.113-.173.37-.371.742-.594 1.113-.198.371-.358.63-.482.78-.05.049-.346.074-.89.074a64.54 64.54 0 0 1-1.819-.112c-.668-.05-1.311-.099-1.93-.148-.618-.074-1.026-.136-1.224-.186a5.306 5.306 0 0 1-1.188-.593 3.322 3.322 0 0 1-1.002-1.114c-.05-.123-.136-.532-.26-1.224-.099-.718-.21-1.62-.334-2.71a165.637 165.637 0 0 1-.37-3.673c-.124-1.36-.248-2.746-.372-4.156a289.87 289.87 0 0 1-.334-4.157 937.24 937.24 0 0 1-.26-3.674 64.097 64.097 0 0 1-.074-2.746c0-.742.037-1.187.112-1.336.074-.197.42-.346 1.039-.445.618-.099 1.36-.16 2.226-.185.866-.05 1.794-.062 2.784-.038a46.79 46.79 0 0 1 2.82.149c.866.05 1.595.124 2.19.223.593.074.927.148 1.001.222.1.124.149.408.149.854.024.445 0 .94-.075 1.484-.05.52-.136 1.027-.26 1.522-.098.47-.21.779-.333.927Z" fill="#9E7EC4"/></g><defs><filter id="a" x="14.779" y="11.318" width="20.357" height="34.533" filterUnits="userSpaceOnUse" color-interpolation-filters="sRGB"><feFlood flood-opacity="0" result="BackgroundImageFix"/><feColorMatrix in="SourceAlpha" values="0 0 0 0 0 0 0 0 0 0 0 0 0 0 0 0 0 0 127 0" result="hardAlpha"/><feOffset dy="4"/><feGaussianBlur stdDeviation="2"/><feComposite in2="hardAlpha" operator="out"/><feColorMatrix values="0 0 0 0 0 0 0 0 0 0 0 0 0 0 0 0 0 0 0.25 0"/><feBlend in2="BackgroundImageFix" result="effect1_dropShadow_105_33"/><feBlend in="SourceGraphic" in2="effect1_dropShadow_105_33" result="shape"/></filter></defs></svg>
